X:1
T:Maid of Craigmaddie, The
T:Maid of Craigmaddie, The
T:Nathaniel Gow (1763-1831)
C:Nathaniel Gow (1763-1831)
L:1/8
M:6/8
K:Gmin
V:1 treble 
V:1
 F/=E/ | Ddd d>ed/c/ | BGG G2 A/B/ | (Ac)f af c/B/ | AFF F>GF/=E/ | Ddd d>ed/c/ | BGG G2 g | %7
 (dg)b (d^f)a | Tg3{^fg} G2 :| Tb/>c'/ | (d'b)g (d'b)g | dgg g2 f/g/ | (af)d (cf)d | %13
 (cAF) F2 Tb/>c'/ | (d'b)g (d'b)g | (dg)g g2 f/e/ | Td>cB Tc>BA |{F} G3 G2 Tb/>c'/ | %18
 (d'b)g (d'b)g | dgg g2 =e | Tf/=e/f/a/g/a/ Tf/e/f/d/c/B/ | (AF)F F2 A | (GB).B (Ac)c | %23
 (Bd).d (ce)e | d>Bd{d} c>BA |{F} G3 [B,G]2 || %26

